X: 11038
T: HANDS FOUR HORNPIPE
C: Bob McQuillen 29 Nov.97
B: Bob's Note Book 11 #38
R: hornpipe, reel
Z: 2020 John Chambers <jc:trillian.mit.edu>
M: C
L: 1/8
K: G	# and D
Bc \
| dBGD EGFE | D2DC B,G,B,D | GBdB cBAG | F2A2 A2GA |
| BdBG EGFE | D2DC B,G,B,D | EGFA GBAc | B2G2 G2 :| [K:D]
|: FG \
| A2AB AFAd | f2fe dfed | BcdB AdAF | G2E2 EGFG |
| AFAB A2de | fafd g2fg | afdf gecd | e2d2 d2 :|
%%begintext align
%% This one's for Tony
%% and Beth Parkes, with many thanks for the
%% nice times Old New England just had at their
%% Hands Four Dance Camp Weekend at Lake Shore
%% Farm in Northwood. Thanks loads, dear friends -
%% it was great fun!
%%endtext

%%sep 1 1 500

%%sep 1 1 500

